X:1
T:Violin Sonata
%%score 1 2
L:1/8
Q:1/4=72
M:4/4
K:E
V:1 treble nm="Violin" snm="Vln."
V:2 bass nm="Violoncellos" snm="Vlcs."
V:1
"^Adagio" EGBF EGBF | GEBF FCFC | EGBC FCCF | EABc GABA | c4 B4 | A2 z2 Bc/A/ z z | AGFE DDDF | %7
 G z z2 z4 |: FGB z EGBF | EBEE EFDE | dceB cB c2- | c2 f2 BEcF | FE z2 G/A/B/ z/ FC | FED z GAEG | %14
 ded z FCF z | FAd z B z GA | GGF[DF] z4 | B,4 D4 | D4 B,4 | A,D z2 EGE z | Gc g/g/d/c/ C2 C2 | %21
 AGBb g z AG | eed z eeg z | fg z2 a z ab | a/e/[eg]/ z/ z2 B4 | z8 | E2 G2 B2 z2 | %27
 E2 G2 B z BE/E/- | E/F/G Bc B4 | A4 G4 | E8 | C8 |] %32
V:2
 [C,,C,]8 | [C,,B,,]8 | [E,,C]4 [C,,C]4 | D,8 | z8 | D,,2 z2 E,,2 z2 | C,,2 z2 C,,2 D,,2 | %7
 B,4 z4 |: [D,,D,]4 [D,,A,,]4 | E,4 D,4 | B,,4 [C,,A,,]4 | E,,2 [D,,F,]4 C,,2- | E,,4 [C,,C,]4 | %13
 [C,,E]4 [G,,F,]4 | [G,,C]4 [F,,A,]4 | G, z C,F,, z4 | [G,,C,]G,,/G,,/ G,,/F,,/G,,/ z/ D,,4 | %17
 C,,4 C,,4- | C,,4 z4 | z8 | A,,B,,C,E, B,B,CC | B,G,C,B,, A,A,A,C | B,E,F,B, B,A,B,,G, | %23
 [D,A,]4 [E,A,]4 | [B,,B,]/B,,/[B,,B,]/B,,/ [A,,G,]/ z/ z z4 | z8 | G,,2 F,,2 E,,2 z2 | %27
 E,,2 E,,2 G,,2 F,,2 | C,,2 C,,2 C,,2 F,,2 | [E,,B,,]2 z2 [F,,A,,]2 z2 | E,,8 | C,,8 |] %32

